source/images/icons/twitter.svg

<svg height="40" viewBox="0 0 40 40" width="40" xmlns="http://www.w3.org/2000/svg"><path d="m12.950696 35.883056c14.340288 0 22.182272-11.880472 22.182272-22.182272 0-.337592-.00684-.673664-.022344-1.007912 1.522128-1.100328 2.84544-2.473344 3.889376-4.036664-1.397032.620464-2.900312 1.038768-4.477312 1.227248 1.60968-.964896 2.84544-2.492192 3.428208-4.312544-1.506624.893-3.17452 1.542496-4.950336 1.892248-1.422568-1.515288-3.448728-2.46316-5.690728-2.46316-4.305856 0-7.797448 3.491592-7.797448 7.795776 0 .611952.068552 1.206728.20216 1.77764-6.479304-.325736-12.224904-3.428208-16.069744-8.145528-.670168 1.151856-1.055792 2.490672-1.055792 3.918408 0 2.704992 1.37636 5.09276 3.469248 6.48964-1.278624-.039368-2.480184-.390792-3.53096-.975384-.001824.032528-.001824.065208-.001824.099408 0 3.776288 2.687816 6.928464 6.2548 7.64332-.654664.178144-1.343832.274208-2.055192.274208-.502208 0-.990736-.049704-1.465584-.1406.99256 3.097456 3.870528 5.351464 7.283232 5.415-2.668816 2.091064-6.030144 3.33716-9.682856 3.33716-.629128 0-1.249592-.035872-1.859872-.10792 3.450552 2.211144 7.547256 3.501928 11.950696 3.501928" fill="#fff" fill-rule="evenodd"/></svg>

<svg width="40px" height="40px" viewBox="0 0 40 40" version="1.1" xmlns="http://www.w3.org/2000/svg" xmlns:xlink="http://www.w3.org/1999/xlink">
  <g id="twitter" stroke="none" stroke-width="1" fill="none" fill-rule="evenodd">
    <path d="M12.950696,35.883056 C27.290984,35.883056 35.132968,24.002584 35.132968,13.700784 C35.132968,13.363192 35.126128,13.02712 35.110624,12.692872 C36.632752,11.592544 37.956064,10.219528 39,8.656208 C37.602968,9.276672 36.099688,9.694976 34.522688,9.883456 C36.132368,8.91856 37.368128,7.391264 37.950896,5.570912 C36.444272,6.463912 34.776376,7.113408 33.00056,7.46316 C31.577992,5.947872 29.551832,5 27.309832,5 C23.003976,5 19.512384,8.491592 19.512384,12.795776 C19.512384,13.407728 19.580936,14.002504 19.714544,14.573416 C13.23524,14.24768 7.48964,11.145208 3.6448,6.427888 C2.974632,7.579744 2.589008,8.91856 2.589008,10.346296 C2.589008,13.051288 3.965368,15.439056 6.058256,16.835936 C4.779632,16.796568 3.578072,16.445144 2.527296,15.860552 C2.525472,15.89308 2.525472,15.92576 2.525472,15.95996 C2.525472,19.736248 5.213288,22.888424 8.780272,23.60328 C8.125608,23.781424 7.43644,23.877488 6.72508,23.877488 C6.222872,23.877488 5.734344,23.827784 5.259496,23.736888 C6.252056,26.834344 9.130024,29.088352 12.542728,29.151888 C9.873912,31.242952 6.512584,32.489048 2.859872,32.489048 C2.230744,32.489048 1.61028,32.453176 1,32.381128 C4.450552,34.592272 8.547256,35.883056 12.950696,35.883056" fill="#FFFFFF"></path>
  </g>
</svg>
